Origami/22x22/apps/applications-haskell.svg

<svg width="22" height="22" version="1" xmlns="http://www.w3.org/2000/svg">
 <rect x="1" y="1.5" width="20" height="20" rx="1" ry="1" style="opacity:.2"/>
 <rect x="1" y="1" width="20" height="20" rx="1" ry="1" style="fill:#cccccc"/>
 <path d="m4.5 5.5 3.25 6-3.25 6h2l3.25-6-3.25-6zm3.5 0 3.25 6-3.25 6h2l2.25-4.15 2.25 4.15h2l-6.5-12zm5.667 4 0.813 1.5h3.02v-1.5zm1.353 2.5 0.813 1.5h1.667v-1.5z" style="opacity:.1"/>
 <path d="m4.5 5 3.25 6-3.25 6h2l3.25-6-3.25-6zm9.167 4 0.813 1.5h3.02v-1.5zm1.353 2.5 0.813 1.5h1.667v-1.5z" style="fill:#8b82a4"/>
 <path d="m8 5 3.25 6-3.25 6h2l2.25-4.15 2.25 4.15h2l-6.5-12z" style="fill:#5f5088"/>
 <path d="m2 1c-0.554 0-1 0.446-1 1v0.5c0-0.554 0.446-1 1-1h18c0.554 0 1 0.446 1 1v-0.5c0-0.554-0.446-1-1-1z" style="fill:#ffffff;opacity:.2"/>
</svg>

<svg xmlns="http://www.w3.org/2000/svg" width="22" height="22" version="1">
 <rect style="opacity:0.2" width="20" height="20" x="1" y="1.5" rx="1" ry="1"/>
 <rect style="fill:#cccccc" width="20" height="20" x="1" y="1" rx="1" ry="1"/>
 <path style="opacity:0.1" d="M 4.5,5.5 7.75,11.5 4.5,17.5 H 6.5 L 9.75,11.5 6.5,5.5 Z M 8,5.5 11.25,11.5 8,17.5 H 10 L 12.25,13.35 14.5,17.5 H 16.5 L 10,5.5 Z M 13.667,9.5 14.48,11 H 17.5 V 9.5 Z M 15.02,12 15.833,13.5 H 17.5 V 12 Z"/>
 <path style="fill:#8b82a4" d="M 4.5,5 7.75,11 4.5,17 H 6.5 L 9.75,11 6.5,5 Z M 13.667,9 14.48,10.5 H 17.5 V 9 Z M 15.02,11.5 15.833,13 H 17.5 V 11.5 Z"/>
 <path style="fill:#5f5088" d="M 8,5 11.25,11 8,17 H 10 L 12.25,12.85 14.5,17 H 16.5 L 10,5 Z"/>
 <path style="opacity:0.2;fill:#ffffff" d="M 2,1 C 1.446,1 1,1.446 1,2 V 2.5 C 1,1.946 1.446,1.5 2,1.5 H 20 C 20.554,1.5 21,1.946 21,2.5 V 2 C 21,1.446 20.554,1 20,1 Z"/>
</svg>
